polaris-icons/icons/EnterMajor.svg

<svg viewBox="0 0 20 20" xmlns="http://www.w3.org/2000/svg"><path d="M2.43934 17.5607C2.15804 17.2794 2 16.8978 2 16.5V15C2 14.7348 2.10536 14.4804 2.29289 14.2929C2.48043 14.1054 2.73478 14 3 14C3.26522 14 3.51957 14.1054 3.70711 14.2929C3.89464 14.4804 4 14.7348 4 15V16H16V4H4V5C4 5.26522 3.89464 5.51957 3.70711 5.70711C3.51957 5.89464 3.26522 6 3 6C2.73478 6 2.48043 5.89464 2.29289 5.70711C2.10536 5.51957 2 5.26522 2 5V3.5C2 3.10218 2.15804 2.72064 2.43934 2.43934C2.72064 2.15804 3.10218 2 3.5 2H16.5C16.8978 2 17.2794 2.15804 17.5607 2.43934C17.842 2.72064 18 3.10218 18 3.5V16.5C18 16.8978 17.842 17.2794 17.5607 17.5607C17.2794 17.842 16.8978 18 16.5 18H3.5C3.10218 18 2.72064 17.842 2.43934 17.5607Z" fill="#5C5F62"/><path d="m12.707 9.292-3-3c-0.1875-0.18756-0.44189-0.29291-0.70703-0.29291-0.04761 0-0.09521 0.00342-0.14233 0.0102-0.08228 0.01184-0.16309 0.03393-0.24024 0.06592-0.12134 0.05029-0.23169 0.1239-0.32446 0.21679-0.09277 0.09284-0.16651 0.20307-0.2168 0.32434-0.05005 0.12134-0.07593 0.25135-0.07593 0.38263 0 0.2652 0.10523 0.51947 0.29273 0.70697l1.293 1.293h-7.5859c-0.26514 0-0.51953 0.10535-0.70703 0.29291-0.1875 0.1875-0.29297 0.44189-0.29297 0.70709 0 0.26524 0.10547 0.51964 0.29297 0.70714s0.44189 0.2929 0.70703 0.2929h7.5859l-1.293 1.293c-0.02735 0.0272-0.05298 0.056-0.07691 0.0861-0.05737 0.0723-0.10449 0.1525-0.14013 0.2382-0.0503 0.1213-0.07617 0.2513-0.07617 0.3827 0 0.1313 0.02587 0.2613 0.07617 0.3827 0.05029 0.1213 0.12402 0.2315 0.21704 0.3242 0.0415 0.0418 0.08667 0.0797 0.13476 0.1134 0.05909 0.0414 0.12256 0.0765 0.18946 0.1043 0.12134 0.0504 0.25146 0.0764 0.38281 0.0764 0.06421 0 0.12817-0.0062 0.19092-0.0185 0.06567-0.0127 0.12988-0.0322 0.19189-0.0579 0.12134-0.0505 0.23145-0.1245 0.32422-0.2177l3-3c0.093-0.0927 0.1668-0.2029 0.2171-0.3242 0.0298-0.0719 0.051-0.1469 0.0632-0.2234 0.0085-0.0526 0.0129-0.1059 0.0129-0.15934 0-0.13135-0.0258-0.26135-0.0761-0.38269s-0.1241-0.2315-0.2171-0.32428z" fill="#5C5F62"/></svg>

<svg viewBox="0 0 20 20" xmlns="http://www.w3.org/2000/svg"><path fill-rule="evenodd" clip-rule="evenodd" d="M2.43934 17.5607C2.15804 17.2794 2 16.8978 2 16.5V15C2 14.7348 2.10536 14.4804 2.29289 14.2929C2.48043 14.1054 2.73478 14 3 14C3.26522 14 3.51957 14.1054 3.70711 14.2929C3.89464 14.4804 4 14.7348 4 15V16H16V4H4V5C4 5.26522 3.89464 5.51957 3.70711 5.70711C3.51957 5.89464 3.26522 6 3 6C2.73478 6 2.48043 5.89464 2.29289 5.70711C2.10536 5.51957 2 5.26522 2 5V3.5C2 3.10218 2.15804 2.72064 2.43934 2.43934C2.72064 2.15804 3.10218 2 3.5 2H16.5C16.8978 2 17.2794 2.15804 17.5607 2.43934C17.842 2.72064 18 3.10218 18 3.5V16.5C18 16.8978 17.842 17.2794 17.5607 17.5607C17.2794 17.842 16.8978 18 16.5 18H3.5C3.10218 18 2.72064 17.842 2.43934 17.5607ZM12.707 9.29199L9.70703 6.29199C9.51953 6.10443 9.26514 5.99908 9 5.99908C8.95239 5.99908 8.90479 6.0025 8.85767 6.00928C8.77539 6.02112 8.69458 6.04321 8.61743 6.0752C8.49609 6.12549 8.38574 6.1991 8.29297 6.29199C8.2002 6.38483 8.12646 6.49506 8.07617 6.61633C8.02612 6.73767 8.00024 6.86768 8.00024 6.99896C8.00024 7.26416 8.10547 7.51843 8.29297 7.70593L9.58594 8.99896H2C1.73486 8.99896 1.48047 9.10431 1.29297 9.29187C1.10547 9.47937 1 9.73376 1 9.99896C1 10.2642 1.10547 10.5186 1.29297 10.7061C1.48047 10.8936 1.73486 10.999 2 10.999H9.58594L8.29297 12.292C8.26562 12.3192 8.23999 12.348 8.21606 12.3781C8.15869 12.4504 8.11157 12.5306 8.07593 12.6163C8.02563 12.7376 7.99976 12.8676 7.99976 12.999C7.99976 13.1303 8.02563 13.2603 8.07593 13.3817C8.12622 13.503 8.19995 13.6132 8.29297 13.7059C8.33447 13.7477 8.37964 13.7856 8.42773 13.8193C8.48682 13.8607 8.55029 13.8958 8.61719 13.9236C8.73853 13.974 8.86865 14 9 14C9.06421 14 9.12817 13.9938 9.19092 13.9815C9.25659 13.9688 9.3208 13.9493 9.38281 13.9236C9.50415 13.8731 9.61426 13.7991 9.70703 13.7059L12.707 10.7059C12.8 10.6132 12.8738 10.503 12.9241 10.3817C12.9539 10.3098 12.9751 10.2348 12.9873 10.1583C12.9958 10.1057 13.0002 10.0524 13.0002 9.99896C13.0002 9.86761 12.9744 9.73761 12.9241 9.61627C12.8738 9.49493 12.8 9.38478 12.707 9.29199Z" fill="#5C5F62"/></svg>
